X:1
T:James Gibb editions
T:Regina caeli - Morales
T:#
%%score [ 1 2 3 4 ]
L:1/8
Q:1/4=96
M:4/4
K:F
V:1 treble nm="Soprano" snm="S"
V:2 treble nm="Alto" snm="A"
V:3 treble-8 nm="Tenor" snm="T"
V:4 bass nm="Bass" snm="B"
V:1
"^Regina caeli""^Cristóbal de Morales\n(1500-53)" z8 | z4 F4- | F4 G4 | F4 G4 | A4 z2 B2 | %5
w: |Re\-|* gi-|na cae-|li lae-|
 A2 G2 B4 | (A2 G3 F F2- | F2) E2 F4 | z2 F2 c4 | (d8 | c4) z4 | z2 B4 A2 | (G2 F2) G4 | A4 G2 F2 | %14
w: ta- re, al-|le\- * * *|* lu- ia:|Qui- a|quem||me- ru-|i\- * sti,|me- ru\- *|
 (G4 A4 | G2 F2 G4) | A4 z4 | z4 (B4- | G4 (B4 | c4 F4 | G4) F4 | z8 | z4 B4- | B2 A2 G4- | %24
w: i\- *||sti|por\-|* ta\-||* re,||al\-|* le- lu\-|
 G4 F4- | F4 z4 | z4 B3 A | G4 F4 | z8 | z2 B2 c4 | d4 c4 | z8 | c4 F4 | G4 F4 | z2 B4 A2 | G8 | %36
w: * ia,||al- le-|lu- ia:||Re- sur-|re- xit||si- cut|di- xit,|al- le-|lu-|
 F4 z4 | z8 | c8 | F3 G A2 B2- | B2 A2 G4- | G4) F4 | z8 | G4 B4- | B4 A4 | G4 z4 | z4 z2 F2 | %47
w: ia:||O-|ra pro no- bis|* De\- *|* um,||al- le\-|* lu-|ia,|al-|
 A3 (B c4) | d4 z4 | z4 B4- | B2 A2 G4- | G4 F4 | z4 z2[Q:1/4=95] G2- | %53
w: le- lu\- *|ia,|al\-|* le- lu\-|* ia|al\-|
[Q:1/4=93] G2[Q:1/4=91] (B2[Q:1/4=89] A2[Q:1/4=87] G2- |[Q:1/4=85] G2[Q:1/4=83] F4)[Q:1/4=80] E2 | %55
w: * le\- * *|* * lu-|
[Q:1/4=80] !fermata!F8 |] %56
w: ia.|
V:2
 C8 | D4 C4 | D4 E4 | z2 F2 E2 D2 | F4 (E2 D2- | DC C4) B,2 | C4 z2 C2 | G4 A4- | A4 G4 | %9
w: Re-|gi- na|cae- li|lae- ta- re,|al- le\- *|* * * lu-|ia: Qui-|a quem||
 z4 z2 F2- | F2 E2 D2 C2 | D4 E4 | (D2 C2) D4 | E4 (D2 C2) | D4 E4 | z8 | (F4 D4) | (F4 G4 | %18
w: me-|* ru- i- sti,|me- ru-|i\- * sti|me- ru\- *|i- sti||por\- *|ta\- *|
 C4 D4) | C4 z4 | z8 | F6 E2 | D8 | C8 | z8 | F3 E D4 | C4 z4 | z4 z2 F2 | G4 A4 | G4 z4 | z4 G4 | %31
w: |re,||al- le|lu-|ia,||al- le- lu-|ia:|Re-|sur- re-|xit|si-|
 C4 D4 | C4 z2 F2- | F2 E2 D4- | D4 C4 | z8 | z4 G4- | G4 C3 D | E2 F4 (E2 | D8) | C4 z4 | z4 D4 | %42
w: eut di-|xit, al\-|* le- lu\-|* ia:||O\-|* ra pro|no- bis De\-||um,|al-|
 F8 | E4 D4 | z8 | z2 C2 E3 (F | G4) A4 | z8 | F6 E2 | D8 | C4 z4 | z2 D4 (F2 | E2 D4 C2- | %53
w: le-|lu- ia,||al- le- lu\-|* ia,||al- le-|lu-|ia,|al- le\-||
 C2) B,2 C4- | C8 | !fermata!C8 |] %56
w: * lu- ia.|||
V:3
 c4 A2 F2- | F2 B4 (AG | A2) F2 (c3 B | c2) d2 B2 (d2- | dc c4) B2 | c2 e2 (d3 e | f2 e2 d2) c2- | %7
w: Re- gi- na|* cae- li *|* lae- ta\- *|* re, al- le\-|* * * lu-|ia, al- le\- *|* * * lu\-|
 c2 B2 z2 c2 | f6 e2 | f2 g2 (f2 B2 | c3 B A2 G2 | A2) G2 z4 | z4 z2 (d2- | d2 c2 B2) A2 | %14
w: * ia: Qui-|a quem|me- ru- i\- *||* sti,|me\-|* * * ru-|
 (B4 ABcd | e2 f4) e2 | d2 c4 (B2 | c2 d3) G g2- | g2 (e2 f2 g2 | e2 f3 e c2 | d2 e2) c2 (d2- | %21
w: i\- * * * *|* * sti,|me- ru- i\-|* * sti por\-|* ta\- * *||* * re, al\-|
 dc) (A3 B c2- | c2) (BA) (Bcde | fg f4) e2 | d2 e2 c2 (d2- | dc c4) (=B2 | c2) (A2 Bc d2- | %27
w: * * le\- * *|* lu\- * ia, * * *|* * * al-|le- lu- ia, al\-|* * * le\-|* lu\- * * *|
 d^c c2) d4 | B2 c4 (d2- | dG d3 c c2- | c2 =B2 c2) e2- | e2 f4 (g2 | e2 f3 edc | B2) c2 A2 (Bc) | %34
w: * * * ia:|Re- sur- re\-||* * xit si\-|* cut di\-||* xit, al- le\- *|
 (de) f3 c (f2- | f2 ed edcB | A2 B2) G2 c2- | c2 B4 A2- | A2 (GF G3) A | B2 (AG F2) f2 | %40
w: lu\- * ia, al- le\-||* lu- ia: O\-|* ra pro|* no\- * * bis|De- um, * * o-|
 f4 e2 d2- | dc (c2 B2) (AG | A4 z2) A2 | c2 (G3 ABc) | d2 d2 f2 (cd | ef) g4 c2 | (d2 e2 f3 e | %47
w: ra pro no\-|* bis De\- * um, *|* al|le- lu\- * * *|ia, al- le- lu\- *|* * ia, al-|le\- * * *|
 c2) d2 c2 A2 | (Bcde fd g2- | g2 (fe) f4 | f2 cd ef g2) | (GABc d2 c2- | c2 BA B2 c2) | %53
w: * lu- ia, al-|le\- * * * * * *|* lu\- * ia,|al- le\- * * * *|lu\- * * * * *||
 d2 G2 (A2 c2- | cB A2) G4 | !fermata!F8 |] %56
w: ia, al- le\- *|* * * lu-|ia.|
V:4
 z4 F,4 | D,2 B,,2 (F,3 E, | D,4) C,2 C2 | (A,2 B,2 G,4 | F,4) G,4 | F,2 C,2 G,4 | %6
w: Re-|gi- na- cae\- *|* li lae-|ta\- * *|* re,|al- le- lu-|
 F,2 C2 (B,2 A,2 | G,4 F,3 E, | D,2) F,2 C,2 C2 | B,2 G,2 B,4 | (A,3 G, F,2) E,2 | D,2 D4 C2 | %12
w: ia, al- le\- *||* lu- ia: Qui-|a quem me-|ru\- * * i-|sti, me- ru-|
 (B,2 A,2 B,4) | A,4 z4 | z2 D4 C2- | C2 (A,2 B,2 C2) | F,4 G,4 | (F,2 D,2) G,4 | z2 C2 (B,2 G,2) | %19
w: i\- * *|sti,|me- ru\-|* i\- * *|sti por-|ta\- * re,|por- ta\- *|
 A,2 (F,3 G, A,2) | (B,2 C2) A,2 B,2 | (B,,C,D,E, F,G, A,2) | F,2 (G,3 A, B,2) | F,4 z2 C2 | %24
w: re, al\- * *|le\- * lu- ia,|al\- * * * * * *|le- lu\- * *|ia, al-|
 (B,2 C2 A,2) (B,2- | B,A, F,2) G,4 | A,2 F,2 (G,3 F, | E,4) D,4 | z4 F,4 | G,4 A,4 | G,4 z2 C2- | %31
w: le\- * * lu\-|* * * ¡a,|al- le- lu\- *|* ía:|Re-|sur- re-|xit si\-|
 C2 F,2 (B,2 G,2) | A,4 (B,3 A,) | (G,2 C,2 D,2) (B,,2- | B,,C,D,E,) F,4 | z2 C,2 C,2 C,2 | %36
w: * cut di\- *|xit, al\- *|le\- * * lu\-|* * * * ia:|O- ra pro|
 D,2 B,,2 (C,3 D, | E,4) F,4 | (C,8 | D,6) B,,2 | F,4 G,3 (F, | E,4) D,4- | D,4 D,2 F,2 | %43
w: no- bis De\- *|* um,|De\-|* um,|al- le- lu\-|* ia,|* al- le-|
 (C,D,E,F, G,4) | G,2 B,2 (F,G,A,B,) | C6 A,2 | (B,2 C2 F,4- | F,2 D,2) (E,2 F,2) | %48
w: lu\- * * * ia,|al- le- lu\- * * *|ia, al-|le\- * *|* * lu\- *|
 B,,2 B,2 B,2 C2 | G,2 B,2 B,2 B,2 | (F,G,A,B, C2) (C,D,) | (E,F,G,A, B,2) A,2 | G,6 C,2 | %53
w: ia, al- le- lu-|ia, al- le- lu-|ia, * * * * al\- *|le\- * * * * Iu|ia, al|
 (G,4 F,2 C,2 | E,2 F,2) C,4 | !fermata!F,8 |] %56
w: le\- * *|* * lu-|ia.|

